models/luts/bw_contrast.cube
# Black and white contrast LUT
LUT_3D_SIZE 32
0.000000 0.000000 0.000000
0.001377 0.001377 0.001377
0.003163 0.003163 0.003163
0.005145 0.005145 0.005145
0.007267 0.007267 0.007267
0.009498 0.009498 0.009498
0.011821 0.011821 0.011821
0.014222 0.014222 0.014222
0.016694 0.016694 0.016694
0.019229 0.019229 0.019229
0.021820 0.021820 0.021820
0.024464 0.024464 0.024464
0.027157 0.027157 0.027157
0.029894 0.029894 0.029894
0.032675 0.032675 0.032675
0.035495 0.035495 0.035495
0.038353 0.038353 0.038353
0.041247 0.041247 0.041247
0.044176 0.044176 0.044176
0.047137 0.047137 0.047137
0.050130 0.050130 0.050130
0.053152 0.053152 0.053152
0.056204 0.056204 0.056204
0.059283 0.059283 0.059283
0.062389 0.062389 0.062389
0.065522 0.065522 0.065522
0.068679 0.068679 0.068679
0.071861 0.071861 0.071861
0.075067 0.075067 0.075067
0.078295 0.078295 0.078295
0.081546 0.081546 0.081546
0.084819 0.084819 0.084819
0.009839 0.009839 0.009839
0.012174 0.012174 0.012174
0.014587 0.014587 0.014587
0.017068 0.017068 0.017068
0.019612 0.019612 0.019612
0.022211 0.022211 0.022211
0.024863 0.024863 0.024863
0.027562 0.027562 0.027562
0.030306 0.030306 0.030306
0.033093 0.033093 0.033093
0.035919 0.035919 0.035919
0.038783 0.038783 0.038783
0.041682 0.041682 0.041682
0.044615 0.044615 0.044615
0.047581 0.047581 0.047581
0.050578 0.050578 0.050578
0.053605 0.053605 0.053605
0.056661 0.056661 0.056661
0.059745 0.059745 0.059745
0.062855 0.062855 0.062855
0.065991 0.065991 0.065991
0.069152 0.069152 0.069152
0.072338 0.072338 0.072338
0.075547 0.075547 0.075547
0.078779 0.078779 0.078779
0.082033 0.082033 0.082033
0.085309 0.085309 0.085309
0.088606 0.088606 0.088606
0.091923 0.091923 0.091923
0.095261 0.095261 0.095261
0.098618 0.098618 0.098618
0.101994 0.101994 0.101994
0.022603 0.022603 0.022603
0.025262 0.025262 0.025262
0.027969 0.027969 0.027969
0.030719 0.030719 0.030719
0.033512 0.033512 0.033512
0.036344 0.036344 0.036344
0.039213 0.039213 0.039213
0.042117 0.042117 0.042117
0.045056 0.045056 0.045056
0.048026 0.048026 0.048026
0.051028 0.051028 0.051028
0.054059 0.054059 0.054059
0.057119 0.057119 0.057119
0.060207 0.060207 0.060207
0.063321 0.063321 0.063321
0.066461 0.066461 0.066461
0.069626 0.069626 0.069626
0.072815 0.072815 0.072815
0.076027 0.076027 0.076027
0.079262 0.079262 0.079262
0.082520 0.082520 0.082520
0.085799 0.085799 0.085799
0.089099 0.089099 0.089099
0.092419 0.092419 0.092419
0.095760 0.095760 0.095760
0.099120 0.099120 0.099120
0.102499 0.102499 0.102499
0.105897 0.105897 0.105897
0.109313 0.109313 0.109313
0.112747 0.112747 0.112747
0.116199 0.116199 0.116199
0.119667 0.119667 0.119667
0.036769 0.036769 0.036769
0.039644 0.039644 0.039644
0.042553 0.042553 0.042553
0.045497 0.045497 0.045497
0.048472 0.048472 0.048472
0.051478 0.051478 0.051478
0.054514 0.054514 0.054514
0.057578 0.057578 0.057578
0.060670 0.060670 0.060670
0.063788 0.063788 0.063788
0.066931 0.066931 0.066931
0.070100 0.070100 0.070100
0.073292 0.073292 0.073292
0.076508 0.076508 0.076508
0.079747 0.079747 0.079747
0.083008 0.083008 0.083008
0.086290 0.086290 0.086290
0.089593 0.089593 0.089593
0.092916 0.092916 0.092916
0.096260 0.096260 0.096260
0.099623 0.099623 0.099623
0.103005 0.103005 0.103005
0.106405 0.106405 0.106405
0.109824 0.109824 0.109824
0.113261 0.113261 0.113261
0.116715 0.116715 0.116715
0.120186 0.120186 0.120186
0.123674 0.123674 0.123674
0.127179 0.127179 0.127179
0.130699 0.130699 0.130699
0.134236 0.134236 0.134236
0.137788 0.137788 0.137788
0.051929 0.051929 0.051929
0.054969 0.054969 0.054969
0.058037 0.058037 0.058037
0.061133 0.061133 0.061133
0.064255 0.064255 0.064255
0.067402 0.067402 0.067402
0.070574 0.070574 0.070574
0.073770 0.073770 0.073770
0.076990 0.076990 0.076990
0.080232 0.080232 0.080232
0.083496 0.083496 0.083496
0.086781 0.086781 0.086781
0.090087 0.090087 0.090087
0.093414 0.093414 0.093414
0.096760 0.096760 0.096760
0.100126 0.100126 0.100126
0.103511 0.103511 0.103511
0.106914 0.106914 0.106914
0.110335 0.110335 0.110335
0.113775 0.113775 0.113775
0.117231 0.117231 0.117231
0.120705 0.120705 0.120705
0.124196 0.124196 0.124196
0.127703 0.127703 0.127703
0.131226 0.131226 0.131226
0.134764 0.134764 0.134764
0.138319 0.138319 0.138319
0.141889 0.141889 0.141889
0.145473 0.145473 0.145473
0.149073 0.149073 0.149073
0.152687 0.152687 0.152687
0.156315 0.156315 0.156315
0.067874 0.067874 0.067874
0.071049 0.071049 0.071049
0.074249 0.074249 0.074249
0.077472 0.077472 0.077472
0.080717 0.080717 0.080717
0.083984 0.083984 0.083984
0.087273 0.087273 0.087273
0.090582 0.090582 0.090582
0.093911 0.093911 0.093911
0.097261 0.097261 0.097261
0.100629 0.100629 0.100629
0.104017 0.104017 0.104017
0.107423 0.107423 0.107423
0.110847 0.110847 0.110847
0.114289 0.114289 0.114289
0.117748 0.117748 0.117748
0.121225 0.121225 0.121225
0.124718 0.124718 0.124718
0.128227 0.128227 0.128227
0.131752 0.131752 0.131752
0.135294 0.135294 0.135294
0.138850 0.138850 0.138850
0.142422 0.142422 0.142422
0.146009 0.146009 0.146009
0.149611 0.149611 0.149611
0.153227 0.153227 0.153227
0.156858 0.156858 0.156858
0.160502 0.160502 0.160502
0.164161 0.164161 0.164161
0.167833 0.167833 0.167833
0.171518 0.171518 0.171518
0.175217 0.175217 0.175217
0.084473 0.084473 0.084473
0.087765 0.087765 0.087765
0.091077 0.091077 0.091077
0.094410 0.094410 0.094410
0.097762 0.097762 0.097762
0.101133 0.101133 0.101133
0.104524 0.104524 0.104524
0.107933 0.107933 0.107933
0.111359 0.111359 0.111359
0.114804 0.114804 0.114804
0.118266 0.118266 0.118266
0.121744 0.121744 0.121744
0.125240 0.125240 0.125240
0.128752 0.128752 0.128752
0.132279 0.132279 0.132279
0.135823 0.135823 0.135823
0.139382 0.139382 0.139382
0.142956 0.142956 0.142956
0.146545 0.146545 0.146545
0.150149 0.150149 0.150149
0.153768 0.153768 0.153768
0.157400 0.157400 0.157400
0.161047 0.161047 0.161047
0.164708 0.164708 0.164708
0.168382 0.168382 0.168382
0.172069 0.172069 0.172069
0.175770 0.175770 0.175770
0.179484 0.179484 0.179484
0.183210 0.183210 0.183210
0.186949 0.186949 0.186949
0.190701 0.190701 0.190701
0.194465 0.194465 0.194465
0.101638 0.101638 0.101638
0.105031 0.105031 0.105031
0.108442 0.108442 0.108442
0.111872 0.111872 0.111872
0.115319 0.115319 0.115319
0.118783 0.118783 0.118783
0.122265 0.122265 0.122265
0.125763 0.125763 0.125763
0.129277 0.129277 0.129277
0.132807 0.132807 0.132807
0.136353 0.136353 0.136353
0.139914 0.139914 0.139914
0.143491 0.143491 0.143491
0.147082 0.147082 0.147082
0.150688 0.150688 0.150688
0.154309 0.154309 0.154309
0.157943 0.157943 0.157943
0.161592 0.161592 0.161592
0.165255 0.165255 0.165255
0.168931 0.168931 0.168931
0.172620 0.172620 0.172620
0.176323 0.176323 0.176323
0.180038 0.180038 0.180038
0.183767 0.183767 0.183767
0.187508 0.187508 0.187508
0.191262 0.191262 0.191262
0.195028 0.195028 0.195028
0.198806 0.198806 0.198806
0.202596 0.202596 0.202596
0.206398 0.206398 0.206398
0.210212 0.210212 0.210212
0.214037 0.214037 0.214037
0.119301 0.119301 0.119301
0.122785 0.122785 0.122785
0.126286 0.126286 0.126286
0.129802 0.129802 0.129802
0.133335 0.133335 0.133335
0.136883 0.136883 0.136883
0.140446 0.140446 0.140446
0.144025 0.144025 0.144025
0.147619 0.147619 0.147619
0.151227 0.151227 0.151227
0.154850 0.154850 0.154850
0.158487 0.158487 0.158487
0.162137 0.162137 0.162137
0.165802 0.165802 0.165802
0.169480 0.169480 0.169480
0.173171 0.173171 0.173171
0.176876 0.176876 0.176876
0.180594 0.180594 0.180594
0.184324 0.184324 0.184324
0.188067 0.188067 0.188067
0.191823 0.191823 0.191823
0.195590 0.195590 0.195590
0.199370 0.199370 0.199370
0.203162 0.203162 0.203162
0.206966 0.206966 0.206966
0.210781 0.210781 0.210781
0.214608 0.214608 0.214608
0.218447 0.218447 0.218447
0.222296 0.222296 0.222296
0.226157 0.226157 0.226157
0.230029 0.230029 0.230029
0.233912 0.233912 0.233912
0.137413 0.137413 0.137413
0.140979 0.140979 0.140979
0.144560 0.144560 0.144560
0.148156 0.148156 0.148156
0.151766 0.151766 0.151766
0.155391 0.155391 0.155391
0.159030 0.159030 0.159030
0.162683 0.162683 0.162683
0.166350 0.166350 0.166350
0.170030 0.170030 0.170030
0.173723 0.173723 0.173723
0.177430 0.177430 0.177430
0.181149 0.181149 0.181149
0.184881 0.184881 0.184881
0.188626 0.188626 0.188626
0.192384 0.192384 0.192384
0.196153 0.196153 0.196153
0.199935 0.199935 0.199935
0.203729 0.203729 0.203729
0.207534 0.207534 0.207534
0.211351 0.211351 0.211351
0.215180 0.215180 0.215180
0.219020 0.219020 0.219020
0.222871 0.222871 0.222871
0.226734 0.226734 0.226734
0.230607 0.230607 0.230607
0.234492 0.234492 0.234492
0.238387 0.238387 0.238387
0.242292 0.242292 0.242292
0.246209 0.246209 0.246209
0.250135 0.250135 0.250135
0.254072 0.254072 0.254072
0.155933 0.155933 0.155933
0.159574 0.159574 0.159574
0.163229 0.163229 0.163229
0.166897 0.166897 0.166897
0.170580 0.170580 0.170580
0.174275 0.174275 0.174275
0.177983 0.177983 0.177983
0.181705 0.181705 0.181705
0.185439 0.185439 0.185439
0.189186 0.189186 0.189186
0.192945 0.192945 0.192945
0.196716 0.196716 0.196716
0.200500 0.200500 0.200500
0.204295 0.204295 0.204295
0.208103 0.208103 0.208103
0.211921 0.211921 0.211921
0.215752 0.215752 0.215752
0.219594 0.219594 0.219594
0.223447 0.223447 0.223447
0.227311 0.227311 0.227311
0.231186 0.231186 0.231186
0.235072 0.235072 0.235072
0.238968 0.238968 0.238968
0.242876 0.242876 0.242876
0.246793 0.246793 0.246793
0.250722 0.250722 0.250722
0.254660 0.254660 0.254660
0.258609 0.258609 0.258609
0.262567 0.262567 0.262567
0.266536 0.266536 0.266536
0.270515 0.270515 0.270515
0.274503 0.274503 0.274503
0.174827 0.174827 0.174827
0.178538 0.178538 0.178538
0.182261 0.182261 0.182261
0.185997 0.185997 0.185997
0.189746 0.189746 0.189746
0.193507 0.193507 0.193507
0.197280 0.197280 0.197280
0.201065 0.201065 0.201065
0.204862 0.204862 0.204862
0.208671 0.208671 0.208671
0.212492 0.212492 0.212492
0.216324 0.216324 0.216324
0.220167 0.220167 0.220167
0.224022 0.224022 0.224022
0.227888 0.227888 0.227888
0.231765 0.231765 0.231765
0.235652 0.235652 0.235652
0.239550 0.239550 0.239550
0.243459 0.243459 0.243459
0.247379 0.247379 0.247379
0.251308 0.251308 0.251308
0.255248 0.255248 0.255248
0.259198 0.259198 0.259198
0.263159 0.263159 0.263159
0.267129 0.267129 0.267129
0.271109 0.271109 0.271109
0.275099 0.275099 0.275099
0.279098 0.279098 0.279098
0.283107 0.283107 0.283107
0.287126 0.287126 0.287126
0.291154 0.291154 0.291154
0.295191 0.295191 0.295191
0.194069 0.194069 0.194069
0.197844 0.197844 0.197844
0.201631 0.201631 0.201631
0.205430 0.205430 0.205430
0.209240 0.209240 0.209240
0.213063 0.213063 0.213063
0.216896 0.216896 0.216896
0.220742 0.220742 0.220742
0.224598 0.224598 0.224598
0.228465 0.228465 0.228465
0.232344 0.232344 0.232344
0.236233 0.236233 0.236233
0.240133 0.240133 0.240133
0.244043 0.244043 0.244043
0.247964 0.247964 0.247964
0.251895 0.251895 0.251895
0.255837 0.255837 0.255837
0.259788 0.259788 0.259788
0.263750 0.263750 0.263750
0.267722 0.267722 0.267722
0.271703 0.271703 0.271703
0.275694 0.275694 0.275694
0.279695 0.279695 0.279695
0.283706 0.283706 0.283706
0.287726 0.287726 0.287726
0.291755 0.291755 0.291755
0.295794 0.295794 0.295794
0.299841 0.299841 0.299841
0.303898 0.303898 0.303898
0.307964 0.307964 0.307964
0.312039 0.312039 0.312039
0.316123 0.316123 0.316123
0.213634 0.213634 0.213634
0.217469 0.217469 0.217469
0.221316 0.221316 0.221316
0.225174 0.225174 0.225174
0.229043 0.229043 0.229043
0.232923 0.232923 0.232923
0.236814 0.236814 0.236814
0.240715 0.240715 0.240715
0.244627 0.244627 0.244627
0.248549 0.248549 0.248549
0.252482 0.252482 0.252482
0.256425 0.256425 0.256425
0.260378 0.260378 0.260378
0.264342 0.264342 0.264342
0.268315 0.268315 0.268315
0.272298 0.272298 0.272298
0.276290 0.276290 0.276290
0.280293 0.280293 0.280293
0.284305 0.284305 0.284305
0.288326 0.288326 0.288326
0.292357 0.292357 0.292357
0.296397 0.296397 0.296397
0.300446 0.300446 0.300446
0.304504 0.304504 0.304504
0.308571 0.308571 0.308571
0.312648 0.312648 0.312648
0.316733 0.316733 0.316733
0.320827 0.320827 0.320827
0.324930 0.324930 0.324930
0.329041 0.329041 0.329041
0.333161 0.333161 0.333161
0.337289 0.337289 0.337289
0.233502 0.233502 0.233502
0.237395 0.237395 0.237395
0.241298 0.241298 0.241298
0.245211 0.245211 0.245211
0.249135 0.249135 0.249135
0.253070 0.253070 0.253070
0.257014 0.257014 0.257014
0.260969 0.260969 0.260969
0.264934 0.264934 0.264934
0.268908 0.268908 0.268908
0.272893 0.272893 0.272893
0.276887 0.276887 0.276887
0.280890 0.280890 0.280890
0.284904 0.284904 0.284904
0.288926 0.288926 0.288926
0.292958 0.292958 0.292958
0.297000 0.297000 0.297000
0.301050 0.301050 0.301050
0.305110 0.305110 0.305110
0.309179 0.309179 0.309179
0.313256 0.313256 0.313256
0.317343 0.317343 0.317343
0.321438 0.321438 0.321438
0.325542 0.325542 0.325542
0.329655 0.329655 0.329655
0.333776 0.333776 0.333776
0.337906 0.337906 0.337906
0.342044 0.342044 0.342044
0.346190 0.346190 0.346190
0.350345 0.350345 0.350345
0.354508 0.354508 0.354508
0.358679 0.358679 0.358679
0.253657 0.253657 0.253657
0.257603 0.257603 0.257603
0.261559 0.261559 0.261559
0.265526 0.265526 0.265526
0.269502 0.269502 0.269502
0.273488 0.273488 0.273488
0.277483 0.277483 0.277483
0.281488 0.281488 0.281488
0.285503 0.285503 0.285503
0.289527 0.289527 0.289527
0.293561 0.293561 0.293561
0.297603 0.297603 0.297603
0.301655 0.301655 0.301655
0.305716 0.305716 0.305716
0.309786 0.309786 0.309786
0.313865 0.313865 0.313865
0.317953 0.317953 0.317953
0.322050 0.322050 0.322050
0.326155 0.326155 0.326155
0.330269 0.330269 0.330269
0.334391 0.334391 0.334391
0.338522 0.338522 0.338522
0.342661 0.342661 0.342661
0.346809 0.346809 0.346809
0.350965 0.350965 0.350965
0.355129 0.355129 0.355129
0.359302 0.359302 0.359302
0.363482 0.363482 0.363482
0.367671 0.367671 0.367671
0.371867 0.371867 0.371867
0.376072 0.376072 0.376072
0.380284 0.380284 0.380284
0.274083 0.274083 0.274083
0.278080 0.278080 0.278080
0.282086 0.282086 0.282086
0.286102 0.286102 0.286102
0.290128 0.290128 0.290128
0.294163 0.294163 0.294163
0.298207 0.298207 0.298207
0.302260 0.302260 0.302260
0.306323 0.306323 0.306323
0.310394 0.310394 0.310394
0.314474 0.314474 0.314474
0.318563 0.318563 0.318563
0.322661 0.322661 0.322661
0.326768 0.326768 0.326768
0.330883 0.330883 0.330883
0.335007 0.335007 0.335007
0.339139 0.339139 0.339139
0.343279 0.343279 0.343279
0.347428 0.347428 0.347428
0.351586 0.351586 0.351586
0.355751 0.355751 0.355751
0.359925 0.359925 0.359925
0.364106 0.364106 0.364106
0.368296 0.368296 0.368296
0.372494 0.372494 0.372494
0.376699 0.376699 0.376699
0.380913 0.380913 0.380913
0.385134 0.385134 0.385134
0.389363 0.389363 0.389363
0.393599 0.393599 0.393599
0.397844 0.397844 0.397844
0.402095 0.402095 0.402095
0.294765 0.294765 0.294765
0.298811 0.298811 0.298811
0.302865 0.302865 0.302865
0.306929 0.306929 0.306929
0.311002 0.311002 0.311002
0.315083 0.315083 0.315083
0.319174 0.319174 0.319174
0.323273 0.323273 0.323273
0.327381 0.327381 0.327381
0.331497 0.331497 0.331497
0.335622 0.335622 0.335622
0.339756 0.339756 0.339756
0.343898 0.343898 0.343898
0.348048 0.348048 0.348048
0.352206 0.352206 0.352206
0.356373 0.356373 0.356373
0.360548 0.360548 0.360548
0.364731 0.364731 0.364731
0.368922 0.368922 0.368922
0.373120 0.373120 0.373120
0.377327 0.377327 0.377327
0.381542 0.381542 0.381542
0.385764 0.385764 0.385764
0.389994 0.389994 0.389994
0.394232 0.394232 0.394232
0.398477 0.398477 0.398477
0.402730 0.402730 0.402730
0.406990 0.406990 0.406990
0.411258 0.411258 0.411258
0.415533 0.415533 0.415533
0.419816 0.419816 0.419816
0.424106 0.424106 0.424106
0.315693 0.315693 0.315693
0.319785 0.319785 0.319785
0.323885 0.323885 0.323885
0.327994 0.327994 0.327994
0.332112 0.332112 0.332112
0.336238 0.336238 0.336238
0.340373 0.340373 0.340373
0.344516 0.344516 0.344516
0.348667 0.348667 0.348667
0.352827 0.352827 0.352827
0.356995 0.356995 0.356995
0.361171 0.361171 0.361171
0.365355 0.365355 0.365355
0.369547 0.369547 0.369547
0.373747 0.373747 0.373747
0.377955 0.377955 0.377955
0.382171 0.382171 0.382171
0.386394 0.386394 0.386394
0.390626 0.390626 0.390626
0.394864 0.394864 0.394864
0.399111 0.399111 0.399111
0.403365 0.403365 0.403365
0.407626 0.407626 0.407626
0.411895 0.411895 0.411895
0.416171 0.416171 0.416171
0.420455 0.420455 0.420455
0.424746 0.424746 0.424746
0.429044 0.429044 0.429044
0.433350 0.433350 0.433350
0.437662 0.437662 0.437662
0.441982 0.441982 0.441982
0.446308 0.446308 0.446308
0.336854 0.336854 0.336854
0.340990 0.340990 0.340990
0.345135 0.345135 0.345135
0.349287 0.349287 0.349287
0.353448 0.353448 0.353448
0.357617 0.357617 0.357617
0.361794 0.361794 0.361794
0.365980 0.365980 0.365980
0.370173 0.370173 0.370173
0.374374 0.374374 0.374374
0.378583 0.378583 0.378583
0.382800 0.382800 0.382800
0.387025 0.387025 0.387025
0.391257 0.391257 0.391257
0.395497 0.395497 0.395497
0.399745 0.399745 0.399745
0.404000 0.404000 0.404000
0.408262 0.408262 0.408262
0.412532 0.412532 0.412532
0.416810 0.416810 0.416810
0.421095 0.421095 0.421095
0.425387 0.425387 0.425387
0.429686 0.429686 0.429686
0.433992 0.433992 0.433992
0.438306 0.438306 0.438306
0.442626 0.442626 0.442626
0.446954 0.446954 0.446954
0.451289 0.451289 0.451289
0.455630 0.455630 0.455630
0.459979 0.459979 0.459979
0.464334 0.464334 0.464334
0.468696 0.468696 0.468696
0.358240 0.358240 0.358240
0.362418 0.362418 0.362418
0.366605 0.366605 0.366605
0.370799 0.370799 0.370799
0.375001 0.375001 0.375001
0.379212 0.379212 0.379212
0.383430 0.383430 0.383430
0.387655 0.387655 0.387655
0.391889 0.391889 0.391889
0.396130 0.396130 0.396130
0.400379 0.400379 0.400379
0.404635 0.404635 0.404635
0.408899 0.408899 0.408899
0.413170 0.413170 0.413170
0.417448 0.417448 0.417448
0.421734 0.421734 0.421734
0.426027 0.426027 0.426027
0.430327 0.430327 0.430327
0.434635 0.434635 0.434635
0.438950 0.438950 0.438950
0.443271 0.443271 0.443271
0.447600 0.447600 0.447600
0.451936 0.451936 0.451936
0.456278 0.456278 0.456278
0.460628 0.460628 0.460628
0.464984 0.464984 0.464984
0.469348 0.469348 0.469348
0.473718 0.473718 0.473718
0.478094 0.478094 0.478094
0.482478 0.482478 0.482478
0.486868 0.486868 0.486868
0.491264 0.491264 0.491264
0.379840 0.379840 0.379840
0.384059 0.384059 0.384059
0.388286 0.388286 0.388286
0.392521 0.392521 0.392521
0.396763 0.396763 0.396763
0.401013 0.401013 0.401013
0.405270 0.405270 0.405270
0.409535 0.409535 0.409535
0.413807 0.413807 0.413807
0.418087 0.418087 0.418087
0.422374 0.422374 0.422374
0.426668 0.426668 0.426668
0.430969 0.430969 0.430969
0.435278 0.435278 0.435278
0.439594 0.439594 0.439594
0.443916 0.443916 0.443916
0.448246 0.448246 0.448246
0.452583 0.452583 0.452583
0.456927 0.456927 0.456927
0.461277 0.461277 0.461277
0.465635 0.465635 0.465635
0.469999 0.469999 0.469999
0.474370 0.474370 0.474370
0.478748 0.478748 0.478748
0.483132 0.483132 0.483132
0.487523 0.487523 0.487523
0.491921 0.491921 0.491921
0.496325 0.496325 0.496325
0.500490 0.500490 0.500490
0.503435 0.503435 0.503435
0.506384 0.506384 0.506384
0.509338 0.509338 0.509338
0.401647 0.401647 0.401647
0.405906 0.405906 0.405906
0.410172 0.410172 0.410172
0.414445 0.414445 0.414445
0.418726 0.418726 0.418726
0.423014 0.423014 0.423014
0.427309 0.427309 0.427309
0.431611 0.431611 0.431611
0.435921 0.435921 0.435921
0.440238 0.440238 0.440238
0.444562 0.444562 0.444562
0.448892 0.448892 0.448892
0.453230 0.453230 0.453230
0.457575 0.457575 0.457575
0.461926 0.461926 0.461926
0.466285 0.466285 0.466285
0.470650 0.470650 0.470650
0.475022 0.475022 0.475022
0.479401 0.479401 0.479401
0.483786 0.483786 0.483786
0.488178 0.488178 0.488178
0.492577 0.492577 0.492577
0.496982 0.496982 0.496982
0.500929 0.500929 0.500929
0.503875 0.503875 0.503875
0.506825 0.506825 0.506825
0.509779 0.509779 0.509779
0.512738 0.512738 0.512738
0.515701 0.515701 0.515701
0.518669 0.518669 0.518669
0.521641 0.521641 0.521641
0.524618 0.524618 0.524618
0.423654 0.423654 0.423654
0.427950 0.427950 0.427950
0.432254 0.432254 0.432254
0.436564 0.436564 0.436564
0.440882 0.440882 0.440882
0.445207 0.445207 0.445207
0.449539 0.449539 0.449539
0.453878 0.453878 0.453878
0.458223 0.458223 0.458223
0.462576 0.462576 0.462576
0.466935 0.466935 0.466935
0.471302 0.471302 0.471302
0.475675 0.475675 0.475675
0.480054 0.480054 0.480054
0.484441 0.484441 0.484441
0.488834 0.488834 0.488834
0.493233 0.493233 0.493233
0.497640 0.497640 0.497640
0.501368 0.501368 0.501368
0.504314 0.504314 0.504314
0.507265 0.507265 0.507265
0.510220 0.510220 0.510220
0.513179 0.513179 0.513179
0.516143 0.516143 0.516143
0.519112 0.519112 0.519112
0.522085 0.522085 0.522085
0.525062 0.525062 0.525062
0.528045 0.528045 0.528045
0.531032 0.531032 0.531032
0.534024 0.534024 0.534024
0.537020 0.537020 0.537020
0.540022 0.540022 0.540022
0.445852 0.445852 0.445852
0.450185 0.450185 0.450185
0.454525 0.454525 0.454525
0.458872 0.458872 0.458872
0.463226 0.463226 0.463226
0.467586 0.467586 0.467586
0.471953 0.471953 0.471953
0.476327 0.476327 0.476327
0.480708 0.480708 0.480708
0.485096 0.485096 0.485096
0.489490 0.489490 0.489490
0.493890 0.493890 0.493890
0.498297 0.498297 0.498297
0.501807 0.501807 0.501807
0.504754 0.504754 0.504754
0.507705 0.507705 0.507705
0.510661 0.510661 0.510661
0.513621 0.513621 0.513621
0.516585 0.516585 0.516585
0.519555 0.519555 0.519555
0.522528 0.522528 0.522528
0.525507 0.525507 0.525507
0.528490 0.528490 0.528490
0.531478 0.531478 0.531478
0.534470 0.534470 0.534470
0.537467 0.537467 0.537467
0.540470 0.540470 0.540470
0.543477 0.543477 0.543477
0.546489 0.546489 0.546489
0.549506 0.549506 0.549506
0.552528 0.552528 0.552528
0.555555 0.555555 0.555555
0.468237 0.468237 0.468237
0.472605 0.472605 0.472605
0.476980 0.476980 0.476980
0.481362 0.481362 0.481362
0.485750 0.485750 0.485750
0.490145 0.490145 0.490145
0.494547 0.494547 0.494547
0.498955 0.498955 0.498955
0.502246 0.502246 0.502246
0.505194 0.505194 0.505194
0.508146 0.508146 0.508146
0.511102 0.511102 0.511102
0.514063 0.514063 0.514063
0.517028 0.517028 0.517028
0.519998 0.519998 0.519998
0.522972 0.522972 0.522972
0.525951 0.525951 0.525951
0.528935 0.528935 0.528935
0.531923 0.531923 0.531923
0.534917 0.534917 0.534917
0.537915 0.537915 0.537915
0.540918 0.540918 0.540918
0.543926 0.543926 0.543926
0.546938 0.546938 0.546938
0.549956 0.549956 0.549956
0.552979 0.552979 0.552979
0.556007 0.556007 0.556007
0.559041 0.559041 0.559041
0.562079 0.562079 0.562079
0.565123 0.565123 0.565123
0.568172 0.568172 0.568172
0.571226 0.571226 0.571226
0.490801 0.490801 0.490801
0.495204 0.495204 0.495204
0.499613 0.499613 0.499613
0.502686 0.502686 0.502686
0.505634 0.505634 0.505634
0.508586 0.508586 0.508586
0.511543 0.511543 0.511543
0.514505 0.514505 0.514505
0.517471 0.517471 0.517471
0.520441 0.520441 0.520441
0.523416 0.523416 0.523416
0.526396 0.526396 0.526396
0.529380 0.529380 0.529380
0.532370 0.532370 0.532370
0.535364 0.535364 0.535364
0.538362 0.538362 0.538362
0.541366 0.541366 0.541366
0.544375 0.544375 0.544375
0.547388 0.547388 0.547388
0.550407 0.550407 0.550407
0.553430 0.553430 0.553430
0.556459 0.556459 0.556459
0.559493 0.559493 0.559493
0.562533 0.562533 0.562533
0.565577 0.565577 0.565577
0.568627 0.568627 0.568627
0.571682 0.571682 0.571682
0.574743 0.574743 0.574743
0.577809 0.577809 0.577809
0.580881 0.580881 0.580881
0.583958 0.583958 0.583958
0.587042 0.587042 0.587042
0.509027 0.509027 0.509027
0.511985 0.511985 0.511985
0.514947 0.514947 0.514947
0.517913 0.517913 0.517913
0.520884 0.520884 0.520884
0.523860 0.523860 0.523860
0.526841 0.526841 0.526841
0.529826 0.529826 0.529826
0.532816 0.532816 0.532816
0.535810 0.535810 0.535810
0.538810 0.538810 0.538810
0.541814 0.541814 0.541814
0.544824 0.544824 0.544824
0.547838 0.547838 0.547838
0.550857 0.550857 0.550857
0.553882 0.553882 0.553882
0.556911 0.556911 0.556911
0.559946 0.559946 0.559946
0.562986 0.562986 0.562986
0.566031 0.566031 0.566031
0.569082 0.569082 0.569082
0.572138 0.572138 0.572138
0.575200 0.575200 0.575200
