models/luts/bw_contrast.cube
# Black and white contrast LUT
LUT_3D_SIZE 5
DOMAIN_MIN 0.000000 0.000000 0.000000
DOMAIN_MAX 0.903226 0.903226 0.903226
0.000000 0.000000 0.000000
0.014222 0.014222 0.014222
0.032675 0.032675 0.032675
0.053152 0.053152 0.053152
0.075067 0.075067 0.075067
0.101638 0.101638 0.101638
0.125763 0.125763 0.125763
0.150688 0.150688 0.150688
0.176323 0.176323 0.176323
0.202596 0.202596 0.202596
0.233502 0.233502 0.233502
0.260969 0.260969 0.260969
0.288926 0.288926 0.288926
0.317343 0.317343 0.317343
0.346190 0.346190 0.346190
0.379840 0.379840 0.379840
0.409535 0.409535 0.409535
0.439594 0.439594 0.439594
0.469999 0.469999 0.469999
0.500490 0.500490 0.500490
0.524304 0.524304 0.524304
0.545273 0.545273 0.545273
0.566486 0.566486 0.566486
0.587962 0.587962 0.587962
0.609722 0.609722 0.609722
0.045237 0.045237 0.045237
0.066655 0.066655 0.066655
0.089302 0.089302 0.089302
0.112959 0.112959 0.112959
0.137476 0.137476 0.137476
0.166575 0.166575 0.166575
0.192615 0.192615 0.192615
0.219256 0.219256 0.219256
0.246449 0.246449 0.246449
0.274153 0.274153 0.274153
0.306572 0.306572 0.306572
0.335260 0.335260 0.335260
0.364363 0.364363 0.364363
0.393860 0.393860 0.393860
0.423729 0.423729 0.423729
0.458490 0.458490 0.458490
0.489104 0.489104 0.489104
0.513361 0.513361 0.513361
0.534207 0.534207 0.534207
0.555290 0.555290 0.555290
0.579829 0.579829 0.579829
0.601480 0.601480 0.601480
0.623428 0.623428 0.623428
0.645701 0.645701 0.645701
0.668330 0.668330 0.668330
0.103928 0.103928 0.103928
0.128134 0.128134 0.128134
0.153132 0.153132 0.153132
0.178831 0.178831 0.178831
0.205163 0.205163 0.205163
0.236130 0.236130 0.236130
0.263646 0.263646 0.263646
0.291649 0.291649 0.291649
0.320108 0.320108 0.320108
0.348996 0.348996 0.348996
0.382689 0.382689 0.382689
0.412420 0.412420 0.412420
0.442513 0.442513 0.442513
0.472950 0.472950 0.472950
0.502479 0.502479 0.502479
0.526317 0.526317 0.526317
0.547309 0.547309 0.547309
0.568547 0.568547 0.568547
0.590049 0.590049 0.590049
0.611837 0.611837 0.611837
0.637260 0.637260 0.637260
0.659751 0.659751 0.659751
0.682620 0.682620 0.682620
0.705909 0.705909 0.705909
0.729670 0.729670 0.729670
0.169060 0.169060 0.169060
0.195160 0.195160 0.195160
0.221857 0.221857 0.221857
0.249101 0.249101 0.249101
0.276852 0.276852 0.276852
0.309322 0.309322 0.309322
0.338051 0.338051 0.338051
0.367193 0.367193 0.367193
0.396726 0.396726 0.396726
0.426630 0.426630 0.426630
0.461430 0.461430 0.461430
0.492075 0.492075 0.492075
0.515363 0.515363 0.515363
0.536231 0.536231 0.536231
0.557337 0.557337 0.557337
0.581906 0.581906 0.581906
0.603584 0.603584 0.603584
0.625563 0.625563 0.625563
0.647869 0.647869 0.647869
0.670534 0.670534 0.670534
0.697073 0.697073 0.697073
0.720649 0.720649 0.720649
0.744734 0.744734 0.744734
0.769402 0.769402 0.769402
0.794750 0.794750 0.794750
0.238763 0.238763 0.238763
0.266327 0.266327 0.266327
0.294375 0.294375 0.294375
0.322877 0.322877 0.322877
0.351805 0.351805 0.351805
0.385542 0.385542 0.385542
0.415308 0.415308 0.415308
0.445435 0.445435 0.445435
0.475905 0.475905 0.475905
0.504470 0.504470 0.504470
0.528333 0.528333 0.528333
0.549347 0.549347 0.549347
0.570610 0.570610 0.570610
0.592139 0.592139 0.592139
0.613956 0.613956 0.613956
0.639415 0.639415 0.639415
0.661940 0.661940 0.661940
0.684848 0.684848 0.684848
0.708181 0.708181 0.708181
0.731990 0.731990 0.731990
0.760023 0.760023 0.760023
0.785101 0.785101 0.785101
0.810936 0.810936 0.810936
0.837689 0.837689 0.837689
0.865599 0.865599 0.865599
