models/luts/bw_contrast.cube
# Black and white contrast LUT
LUT_3D_SIZE 8
DOMAIN_MIN 0.000000 0.000000 0.000000
DOMAIN_MAX 0.903226 0.903226 0.903226
0.000000 0.000000 0.000000
0.007267 0.007267 0.007267
0.016694 0.016694 0.016694
0.027157 0.027157 0.027157
0.038353 0.038353 0.038353
0.050130 0.050130 0.050130
0.062389 0.062389 0.062389
0.075067 0.075067 0.075067
0.051929 0.051929 0.051929
0.064255 0.064255 0.064255
0.076990 0.076990 0.076990
0.090087 0.090087 0.090087
0.103511 0.103511 0.103511
0.117231 0.117231 0.117231
0.131226 0.131226 0.131226
0.145473 0.145473 0.145473
0.119301 0.119301 0.119301
0.133335 0.133335 0.133335
0.147619 0.147619 0.147619
0.162137 0.162137 0.162137
0.176876 0.176876 0.176876
0.191823 0.191823 0.191823
0.206966 0.206966 0.206966
0.222296 0.222296 0.222296
0.194069 0.194069 0.194069
0.209240 0.209240 0.209240
0.224598 0.224598 0.224598
0.240133 0.240133 0.240133
0.255837 0.255837 0.255837
0.271703 0.271703 0.271703
0.287726 0.287726 0.287726
0.303898 0.303898 0.303898
0.274083 0.274083 0.274083
0.290128 0.290128 0.290128
0.306323 0.306323 0.306323
0.322661 0.322661 0.322661
0.339139 0.339139 0.339139
0.355751 0.355751 0.355751
0.372494 0.372494 0.372494
0.389363 0.389363 0.389363
0.358240 0.358240 0.358240
0.375001 0.375001 0.375001
0.391889 0.391889 0.391889
0.408899 0.408899 0.408899
0.426027 0.426027 0.426027
0.443271 0.443271 0.443271
0.460628 0.460628 0.460628
0.478094 0.478094 0.478094
0.445852 0.445852 0.445852
0.463226 0.463226 0.463226
0.480708 0.480708 0.480708
0.498297 0.498297 0.498297
0.510661 0.510661 0.510661
0.522528 0.522528 0.522528
0.534470 0.534470 0.534470
0.546489 0.546489 0.546489
0.524304 0.524304 0.524304
0.536257 0.536257 0.536257
0.548288 0.548288 0.548288
0.560399 0.560399 0.560399
0.572594 0.572594 0.572594
0.584877 0.584877 0.584877
0.597252 0.597252 0.597252
0.609722 0.609722 0.609722
0.023113 0.023113 0.023113
0.034055 0.034055 0.034055
0.045626 0.045626 0.045626
0.057713 0.057713 0.057713
0.070239 0.070239 0.070239
0.083151 0.083151 0.083151
0.096407 0.096407 0.096407
0.109974 0.109974 0.109974
0.085107 0.085107 0.085107
0.098411 0.098411 0.098411
0.112023 0.112023 0.112023
0.125916 0.125916 0.125916
0.140071 0.140071 0.140071
0.154468 0.154468 0.154468
0.169092 0.169092 0.169092
0.183931 0.183931 0.183931
0.156634 0.156634 0.156634
0.171292 0.171292 0.171292
0.186161 0.186161 0.186161
0.201231 0.201231 0.201231
0.216492 0.216492 0.216492
0.231935 0.231935 0.231935
0.247551 0.247551 0.247551
0.263333 0.263333 0.263333
0.234253 0.234253 0.234253
0.249894 0.249894 0.249894
0.265700 0.265700 0.265700
0.281664 0.281664 0.281664
0.297781 0.297781 0.297781
0.314044 0.314044 0.314044
0.330449 0.330449 0.330449
0.346991 0.346991 0.346991
0.316482 0.316482 0.316482
0.332908 0.332908 0.332908
0.349470 0.349470 0.349470
0.366164 0.366164 0.366164
0.382985 0.382985 0.382985
0.399931 0.399931 0.399931
0.416998 0.416998 0.416998
0.434181 0.434181 0.434181
0.402469 0.402469 0.402469
0.419553 0.419553 0.419553
0.436754 0.436754 0.436754
0.454068 0.454068 0.454068
0.471493 0.471493 0.471493
0.489027 0.489027 0.489027
0.504444 0.504444 0.504444
0.516273 0.516273 0.516273
0.491650 0.491650 0.491650
0.506203 0.506203 0.506203
0.518043 0.518043 0.518043
0.529957 0.529957 0.529957
0.541946 0.541946 0.541946
0.554015 0.554015 0.554015
0.566165 0.566165 0.566165
0.578401 0.578401 0.578401
0.555821 0.555821 0.555821
0.567984 0.567984 0.567984
0.580234 0.580234 0.580234
0.592573 0.592573 0.592573
0.605007 0.605007 0.605007
0.617539 0.617539 0.617539
0.630175 0.630175 0.630175
0.642919 0.642919 0.642919
0.053099 0.053099 0.053099
0.065467 0.065467 0.065467
0.078238 0.078238 0.078238
0.091369 0.091369 0.091369
0.104822 0.104822 0.104822
0.118570 0.118570 0.118570
0.132590 0.132590 0.132590
0.146861 0.146861 0.146861
0.120644 0.120644 0.120644
0.134702 0.134702 0.134702
0.149010 0.149010 0.149010
0.163550 0.163550 0.163550
0.178309 0.178309 0.178309
0.193275 0.193275 0.193275
0.208437 0.208437 0.208437
0.223785 0.223785 0.223785
0.195524 0.195524 0.195524
0.210714 0.210714 0.210714
0.226089 0.226089 0.226089
0.241641 0.241641 0.241641
0.257361 0.257361 0.257361
0.273242 0.273242 0.273242
0.289280 0.289280 0.289280
0.305467 0.305467 0.305467
0.275624 0.275624 0.275624
0.291684 0.291684 0.291684
0.307893 0.307893 0.307893
0.324245 0.324245 0.324245
0.340736 0.340736 0.340736
0.357361 0.357361 0.357361
0.374116 0.374116 0.374116
0.390997 0.390997 0.390997
0.359851 0.359851 0.359851
0.376625 0.376625 0.376625
0.393525 0.393525 0.393525
0.410546 0.410546 0.410546
0.427686 0.427686 0.427686
0.444941 0.444941 0.444941
0.462309 0.462309 0.462309
0.479785 0.479785 0.479785
0.447524 0.447524 0.447524
0.464908 0.464908 0.464908
0.482401 0.482401 0.482401
0.500000 0.500000 0.500000
0.511803 0.511803 0.511803
0.523677 0.523677 0.523677
0.535626 0.535626 0.535626
0.547653 0.547653 0.547653
0.525454 0.525454 0.525454
0.537415 0.537415 0.537415
0.549453 0.549453 0.549453
0.561572 0.561572 0.561572
0.573776 0.573776 0.573776
0.586067 0.586067 0.586067
0.598451 0.598451 0.598451
0.610930 0.610930 0.610930
0.587908 0.587908 0.587908
0.600306 0.600306 0.600306
0.612800 0.612800 0.612800
0.625396 0.625396 0.625396
0.638099 0.638099 0.638099
0.650914 0.650914 0.650914
0.663849 0.663849 0.663849
0.676908 0.676908 0.676908
0.086376 0.086376 0.086376
0.099712 0.099712 0.099712
0.113351 0.113351 0.113351
0.127271 0.127271 0.127271
0.141449 0.141449 0.141449
0.155869 0.155869 0.155869
0.170515 0.170515 0.170515
0.185373 0.185373 0.185373
0.158039 0.158039 0.158039
0.172717 0.172717 0.172717
0.187607 0.187607 0.187607
0.202696 0.202696 0.202696
0.217975 0.217975 0.217975
0.233434 0.233434 0.233434
0.249066 0.249066 0.249066
0.264864 0.264864 0.264864
0.235755 0.235755 0.235755
0.251412 0.251412 0.251412
0.267233 0.267233 0.267233
0.283213 0.283213 0.283213
0.299344 0.299344 0.299344
0.315621 0.315621 0.315621
0.332040 0.332040 0.332040
0.348595 0.348595 0.348595
0.318061 0.318061 0.318061
0.334500 0.334500 0.334500
0.351075 0.351075 0.351075
0.367781 0.367781 0.367781
0.384615 0.384615 0.384615
0.401573 0.401573 0.401573
0.418651 0.418651 0.418651
0.435845 0.435845 0.435845
0.404112 0.404112 0.404112
0.421207 0.421207 0.421207
0.438419 0.438419 0.438419
0.455745 0.455745 0.455745
0.473181 0.473181 0.473181
0.490724 0.490724 0.490724
0.505582 0.505582 0.505582
0.517418 0.517418 0.517418
0.493349 0.493349 0.493349
0.507343 0.507343 0.507343
0.519190 0.519190 0.519190
0.531110 0.531110 0.531110
0.543107 0.543107 0.543107
0.555183 0.555183 0.555183
0.567342 0.567342 0.567342
0.579587 0.579587 0.579587
0.556991 0.556991 0.556991
0.569163 0.569163 0.569163
0.581420 0.581420 0.581420
0.593769 0.593769 0.593769
0.606212 0.606212 0.606212
0.618754 0.618754 0.618754
0.631400 0.631400 0.631400
0.644155 0.644155 0.644155
0.620633 0.620633 0.620633
0.633295 0.633295 0.633295
0.646067 0.646067 0.646067
0.658956 0.658956 0.658956
0.671967 0.671967 0.671967
0.685109 0.685109 0.685109
0.698390 0.698390 0.698390
0.711818 0.711818 0.711818
0.121989 0.121989 0.121989
0.136072 0.136072 0.136072
0.150403 0.150403 0.150403
0.164965 0.164965 0.164965
0.179745 0.179745 0.179745
0.194730 0.194730 0.194730
0.209910 0.209910 0.209910
0.225276 0.225276 0.225276
0.196982 0.196982 0.196982
0.212190 0.212190 0.212190
0.227582 0.227582 0.227582
0.243150 0.243150 0.243150
0.258886 0.258886 0.258886
0.274783 0.274783 0.274783
0.290835 0.290835 0.290835
0.307036 0.307036 0.307036
0.277167 0.277167 0.277167
0.293242 0.293242 0.293242
0.309465 0.309465 0.309465
0.325830 0.325830 0.325830
0.342334 0.342334 0.342334
0.358972 0.358972 0.358972
0.375739 0.375739 0.375739
0.392632 0.392632 0.392632
0.361464 0.361464 0.361464
0.378251 0.378251 0.378251
0.395162 0.395162 0.395162
0.412195 0.412195 0.412195
0.429346 0.429346 0.429346
0.446612 0.446612 0.446612
0.463990 0.463990 0.463990
0.481477 0.481477 0.481477
0.449197 0.449197 0.449197
0.466591 0.466591 0.466591
0.484094 0.484094 0.484094
0.501136 0.501136 0.501136
0.512945 0.512945 0.512945
0.524827 0.524827 0.524827
0.536783 0.536783 0.536783
0.548817 0.548817 0.548817
0.526605 0.526605 0.526605
0.538573 0.538573 0.538573
0.550619 0.550619 0.550619
0.562746 0.562746 0.562746
0.574958 0.574958 0.574958
0.587258 0.587258 0.587258
0.599651 0.599651 0.599651
0.612140 0.612140 0.612140
0.589100 0.589100 0.589100
0.601507 0.601507 0.601507
0.614011 0.614011 0.614011
0.626617 0.626617 0.626617
0.639331 0.639331 0.639331
0.652157 0.652157 0.652157
0.665103 0.665103 0.665103
0.678175 0.678175 0.678175
0.654080 0.654080 0.654080
0.667044 0.667044 0.667044
0.680136 0.680136 0.680136
0.693363 0.693363 0.693363
0.706735 0.706735 0.706735
0.720261 0.720261 0.720261
0.733952 0.733952 0.733952
0.747822 0.747822 0.747822
0.159446 0.159446 0.159446
0.174145 0.174145 0.174145
0.189054 0.189054 0.189054
0.204162 0.204162 0.204162
0.219459 0.219459 0.219459
0.234935 0.234935 0.234935
0.250584 0.250584 0.250584
0.266397 0.266397 0.266397
0.237258 0.237258 0.237258
0.252931 0.252931 0.252931
0.268768 0.268768 0.268768
0.284763 0.284763 0.284763
0.300908 0.300908 0.300908
0.317199 0.317199 0.317199
0.333631 0.333631 0.333631
0.350199 0.350199 0.350199
0.319641 0.319641 0.319641
0.336093 0.336093 0.336093
0.352681 0.352681 0.352681
0.369400 0.369400 0.369400
0.386246 0.386246 0.386246
0.403215 0.403215 0.403215
0.420305 0.420305 0.420305
0.437511 0.437511 0.437511
0.405756 0.405756 0.405756
0.422863 0.422863 0.422863
0.440086 0.440086 0.440086
0.457422 0.457422 0.457422
0.474869 0.474869 0.474869
0.492423 0.492423 0.492423
0.506721 0.506721 0.506721
0.518564 0.518564 0.518564
0.495049 0.495049 0.495049
0.508483 0.508483 0.508483
0.520337 0.520337 0.520337
0.532265 0.532265 0.532265
0.544269 0.544269 0.544269
0.556353 0.556353 0.556353
0.568520 0.568520 0.568520
0.580773 0.580773 0.580773
0.558162 0.558162 0.558162
0.570341 0.570341 0.570341
0.582608 0.582608 0.582608
0.594965 0.594965 0.594965
0.607417 0.607417 0.607417
0.619969 0.619969 0.619969
0.632626 0.632626 0.632626
0.645392 0.645392 0.645392
0.621850 0.621850 0.621850
0.634522 0.634522 0.634522
0.647305 0.647305 0.647305
0.660206 0.660206 0.660206
0.673229 0.673229 0.673229
0.686384 0.686384 0.686384
0.699679 0.699679 0.699679
0.713122 0.713122 0.713122
0.688358 0.688358 0.688358
0.701674 0.701674 0.701674
0.715140 0.715140 0.715140
0.728767 0.728767 0.728767
0.742568 0.742568 0.742568
0.756557 0.756557 0.756557
0.770749 0.770749 0.770749
0.785165 0.785165 0.785165
0.198441 0.198441 0.198441
0.213667 0.213667 0.213667
0.229077 0.229077 0.229077
0.244661 0.244661 0.244661
0.260413 0.260413 0.260413
0.276325 0.276325 0.276325
0.292392 0.292392 0.292392
0.308607 0.308607 0.308607
0.278712 0.278712 0.278712
0.294801 0.294801 0.294801
0.311038 0.311038 0.311038
0.327417 0.327417 0.327417
0.343934 0.343934 0.343934
0.360584 0.360584 0.360584
0.377364 0.377364 0.377364
0.394269 0.394269 0.394269
0.363079 0.363079 0.363079
0.379877 0.379877 0.379877
0.396800 0.396800 0.396800
0.413845 0.413845 0.413845
0.431007 0.431007 0.431007
0.448284 0.448284 0.448284
0.465673 0.465673 0.465673
0.483170 0.483170 0.483170
0.450870 0.450870 0.450870
0.468275 0.468275 0.468275
0.485789 0.485789 0.485789
0.502272 0.502272 0.502272
0.514089 0.514089 0.514089
0.525977 0.525977 0.525977
0.537941 0.537941 0.537941
0.549983 0.549983 0.549983
0.527757 0.527757 0.527757
0.539732 0.539732 0.539732
0.551785 0.551785 0.551785
0.563921 0.563921 0.563921
0.576141 0.576141 0.576141
0.588450 0.588450 0.588450
0.600851 0.600851 0.600851
0.613350 0.613350 0.613350
0.590293 0.590293 0.590293
0.602709 0.602709 0.602709
0.615223 0.615223 0.615223
0.627839 0.627839 0.627839
0.640563 0.640563 0.640563
0.653401 0.653401 0.653401
0.666359 0.666359 0.666359
0.679444 0.679444 0.679444
0.655326 0.655326 0.655326
0.668302 0.668302 0.668302
0.681406 0.681406 0.681406
0.694647 0.694647 0.694647
0.708033 0.708033 0.708033
0.721574 0.721574 0.721574
0.735282 0.735282 0.735282
0.749170 0.749170 0.749170
0.723608 0.723608 0.723608
0.737341 0.737341 0.737341
0.751257 0.751257 0.751257
0.765371 0.765371 0.765371
0.779700 0.779700 0.779700
0.794266 0.794266 0.794266
0.809095 0.809095 0.809095
0.824219 0.824219 0.824219
0.238763 0.238763 0.238763
0.254453 0.254453 0.254453
0.270305 0.270305 0.270305
0.286314 0.286314 0.286314
0.302474 0.302474 0.302474
0.318779 0.318779 0.318779
0.335224 0.335224 0.335224
0.351805 0.351805 0.351805
0.321222 0.321222 0.321222
0.337688 0.337688 0.337688
0.354289 0.354289 0.354289
0.371020 0.371020 0.371020
0.387878 0.387878 0.387878
0.404859 0.404859 0.404859
0.421960 0.421960 0.421960
0.439177 0.439177 0.439177
0.407402 0.407402 0.407402
0.424520 0.424520 0.424520
0.441754 0.441754 0.441754
0.459101 0.459101 0.459101
0.476558 0.476558 0.476558
0.494122 0.494122 0.494122
0.507861 0.507861 0.507861
0.519711 0.519711 0.519711
0.496750 0.496750 0.496750
0.509623 0.509623 0.509623
0.521484 0.521484 0.521484
0.533420 0.533420 0.533420
0.545431 0.545431 0.545431
0.557523 0.557523 0.557523
0.569698 0.569698 0.569698
0.581960 0.581960 0.581960
0.559333 0.559333 0.559333
0.571521 0.571521 0.571521
0.583796 0.583796 0.583796
0.596162 0.596162 0.596162
0.608624 0.608624 0.608624
0.621186 0.621186 0.621186
0.633852 0.633852 0.633852
0.646630 0.646630 0.646630
0.623068 0.623068 0.623068
0.635751 0.635751 0.635751
0.648545 0.648545 0.648545
0.661457 0.661457 0.661457
0.674493 0.674493 0.674493
0.687661 0.687661 0.687661
0.700969 0.700969 0.700969
0.714427 0.714427 0.714427
0.689636 0.689636 0.689636
0.702966 0.702966 0.702966
0.716448 0.716448 0.716448
0.730091 0.730091 0.730091
0.743910 0.743910 0.743910
0.757917 0.757917 0.757917
0.772130 0.772130 0.772130
0.786569 0.786569 0.786569
0.760023 0.760023 0.760023
0.774269 0.774269 0.774269
0.788743 0.788743 0.788743
0.803469 0.803469 0.803469
0.818477 0.818477 0.818477
0.833803 0.833803 0.833803
0.849491 0.849491 0.849491
0.865599 0.865599 0.865599
